packages/foundations/assets/icons/functional/images/audio & video/fast_forward_10_24.svg

<svg width="24" height="24" viewBox="0 0 24 24" fill="none" xmlns="http://www.w3.org/2000/svg">
<g clip-path="url(#clip0_184_282)">
<path fill-rule="evenodd" clip-rule="evenodd" d="M2.5 13.094C2.5 8.93798 5.719 5.46898 9.875 5.12498L9.469 4.71898C9.3615 4.62572 9.27519 4.51055 9.21586 4.3812C9.15653 4.25184 9.12555 4.11129 9.125 3.96898C9.125 3.43798 9.594 2.99998 10.156 2.99998C10.375 2.99998 10.625 3.06298 10.812 3.21898L13.094 5.53098C13.1862 5.61977 13.2588 5.72683 13.3071 5.84531C13.3555 5.96378 13.3786 6.09106 13.375 6.21898C13.3786 6.35137 13.3555 6.48313 13.3073 6.60646C13.259 6.72979 13.1865 6.84218 13.094 6.93698L10.906 9.15698C10.719 9.34398 10.469 9.43698 10.156 9.43698C9.625 9.43698 9.187 8.96898 9.187 8.43698C9.187 8.18698 9.281 7.93698 9.5 7.74998L10.063 7.12498C6.937 7.34398 4.5 9.96898 4.5 13.125C4.5 14.656 5.125 16.188 6.281 17.375C6.37094 17.4655 6.44215 17.5728 6.49054 17.6909C6.53893 17.8089 6.56355 17.9354 6.563 18.063C6.563 18.625 6.093 19.063 5.563 19.063C5.43541 19.0635 5.30896 19.0389 5.19091 18.9905C5.07285 18.9421 4.9655 18.8709 4.875 18.781C4.12269 18.0372 3.5254 17.1516 3.11773 16.1754C2.71005 15.1992 2.50009 14.1519 2.5 13.094ZM8.5 19.997C8.5 19.463 8.935 18.993 9.495 18.993H10.49V14.985L10.023 15.267C9.86427 15.3657 9.6819 15.42 9.495 15.424C8.935 15.424 8.531 14.954 8.531 14.421C8.531 14.107 8.655 13.793 8.935 13.574L10.925 12.257C11.0776 12.1606 11.2531 12.1067 11.4334 12.1009C11.6138 12.0951 11.7924 12.1376 11.9508 12.2239C12.1093 12.3103 12.2418 12.4374 12.3346 12.5921C12.4275 12.7468 12.4773 12.9235 12.479 13.104V18.993H13.505C14.065 18.993 14.5 19.463 14.5 19.997C14.5023 20.1286 14.4782 20.2594 14.4291 20.3816C14.38 20.5038 14.3069 20.6149 14.2141 20.7084C14.1214 20.8019 14.0109 20.8759 13.8891 20.926C13.7673 20.976 13.6367 21.0012 13.505 21H9.495C9.36332 21.0012 9.23273 20.976 9.11093 20.926C8.98913 20.8759 8.8786 20.8019 8.78586 20.7084C8.69312 20.6149 8.62004 20.5038 8.57094 20.3816C8.52185 20.2594 8.49772 20.1286 8.5 19.997ZM18.5 12C20.281 12 21.5 13.348 21.5 15.355V17.645C21.5 19.652 20.281 21 18.5 21C16.687 21 15.5 19.652 15.5 17.676V15.293C15.5 13.286 16.688 12 18.5 12ZM18.5 14C17.875 14 17.5 14.472 17.5 15.258V17.679C17.5 18.529 17.875 19 18.5 19C19.125 19 19.5 18.528 19.5 17.648V15.352C19.5 14.503 19.125 14 18.5 14Z" fill="#1A1C1F"/>
</g>
<defs>
<clipPath id="clip0_184_282">
<rect width="24" height="24" fill="white"/>
</clipPath>
</defs>
</svg>

<svg xmlns="http://www.w3.org/2000/svg" width="24" height="24" fill="none"><g clip-path="url(#a)"><path fill="#1A1C1F" fill-rule="evenodd" d="M2.5 13.094c0-4.156 3.219-7.625 7.375-7.969l-.406-.406a1 1 0 0 1-.344-.75c0-.531.469-.969 1.031-.969.219 0 .469.063.656.219l2.282 2.312a.92.92 0 0 1 .281.688 1 1 0 0 1-.281.718l-2.188 2.22q-.28.28-.75.28c-.531 0-.969-.468-.969-1 0-.25.094-.5.313-.687l.563-.625c-3.126.219-5.563 2.844-5.563 6 0 1.531.625 3.063 1.781 4.25a.97.97 0 0 1 .282.688c0 .562-.47 1-1 1a.97.97 0 0 1-.688-.282A8 8 0 0 1 2.5 13.094m6 6.903c0-.534.435-1.004.995-1.004h.995v-4.008l-.467.282a1.04 1.04 0 0 1-.528.157c-.56 0-.964-.47-.964-1.003 0-.314.124-.628.404-.847l1.99-1.317a1.013 1.013 0 0 1 1.554.847v5.889h1.026c.56 0 .995.47.995 1.004A.985.985 0 0 1 13.505 21h-4.01a.99.99 0 0 1-.995-1.003M18.5 12c1.781 0 3 1.348 3 3.355v2.29c0 2.007-1.219 3.355-3 3.355-1.813 0-3-1.348-3-3.324v-2.383c0-2.007 1.188-3.293 3-3.293m0 2c-.625 0-1 .472-1 1.258v2.421c0 .85.375 1.321 1 1.321s1-.472 1-1.352v-2.296c0-.849-.375-1.352-1-1.352" clip-rule="evenodd"/></g><defs><clipPath id="a"><path fill="#fff" d="M0 0h24v24H0z"/></clipPath></defs></svg>
